X: 22
T:Soldier's Joy,The. JMT.022
M:4/4
L:1/8
Q:180
S:J,Moore,Tyneside,1841.(15a)
R:Hornpipe
O:England
A:Northumbria
Z:vmp.Chris Partington
K:D
c/B/|AFDF AFDF|A2d2d2cB|AFDF AFDF|G2E2E2F-G|!
AFDF AFDF|A2d2d3g|fafd egec|d2D2D2:|!
|:g2|fefg fagf|edefg2eg|fefg fagf|edcBA3g|!
fefg fagf|edefg2eg|fafd egec|d2D2D2:||
